svg/furkot/mapbox-maki/playground.svg

<svg viewBox="0 0 512 512" xmlns="http://www.w3.org/2000/svg"><path d="m55.787 42.036c7.643-29.301 37.59-46.858 66.891-39.217 29.301 7.64 46.857 37.59 39.217 66.891-7.32 28.076-35.247 45.584-63.707 39.949-29.703-5.885-49.014-34.733-43.133-64.439.213-1.067.457-2.132.732-3.184zm402.08 408.294c3.772 19.834-9.25 38.966-29.08 42.739-.056.011-.107.021-.161.029-15.542 3.144-31.341-4.09-39.112-17.912l-61.409-123.182-53.001 10.6-8.042 2.925h-2.193v78.589l22.662-5.485h5.117c10.495.198 18.844 8.865 18.646 19.363-.142 7.544-4.733 14.292-11.7 17.19l-182.764 36.553c-2.059.348-4.156.348-6.215 0-10.497 0-19.007-8.51-19.007-19.007 0-7.672 4.613-14.595 11.697-17.546l151.694-30.338v-79.319l-117.7 21.199c-5.994 1.547-12.282 1.547-18.276 0-12.406-3.168-22.253-12.595-25.953-24.856h-.73l-36.553-148.769c-1.141-5.175-1.141-10.543 0-15.718 3.421-14.145 14.905-24.91 29.242-27.415l171.798-19.007v-150.963h8.042v149.867h2.193l8.042-.732 14.621-2.923h7.676c9.77 2.35 15.812 12.146 13.525 21.93-1.605 8.591-9.176 14.772-17.912 14.623l-17.91 2.923h-8.042-2.193v104.542h2.193l8.042-2.194 66.16-13.158c15.627-1.287 30.336 7.536 36.553 21.93l73.106 144.019c2.814 2.77 5.157 5.98 6.944 9.503zm-201.04-262.814-91.381 9.869 27.049 107.465 64.332-12.427z"/></svg>

<svg viewBox="0 0 512 512" xmlns="http://www.w3.org/2000/svg"><path d="M 55.787 42.036 C 63.43 12.735 93.377 -4.822 122.678 2.819 C 151.979 10.459 169.535 40.409 161.895 69.71 C 154.575 97.786 126.648 115.294 98.188 109.659 C 68.485 103.774 49.174 74.926 55.055 45.22 C 55.268 44.153 55.512 43.088 55.787 42.036 Z M 457.867 450.33 C 461.639 470.164 448.617 489.296 428.787 493.069 C 428.731 493.08 428.68 493.09 428.626 493.098 C 413.084 496.242 397.285 489.008 389.514 475.186 L 389.514 475.186 L 328.105 352.004 L 275.104 362.604 L 267.062 365.529 L 264.869 365.529 L 264.869 444.118 L 287.531 438.633 L 292.648 438.633 C 303.143 438.831 311.492 447.498 311.294 457.996 C 311.152 465.54 306.561 472.288 299.594 475.186 L 116.83 511.739 L 116.83 511.739 C 114.771 512.087 112.674 512.087 110.615 511.739 C 100.118 511.739 91.608 503.229 91.608 492.732 C 91.608 485.06 96.221 478.137 103.305 475.186 L 103.305 475.186 L 254.999 444.848 L 254.999 365.529 L 137.299 386.728 L 137.299 386.728 C 131.305 388.275 125.017 388.275 119.023 386.728 C 106.617 383.56 96.77 374.133 93.07 361.872 L 92.34 361.872 L 55.787 213.103 L 55.787 213.103 C 54.646 207.928 54.646 202.56 55.787 197.385 C 59.208 183.24 70.692 172.475 85.029 169.97 L 85.029 169.97 L 256.827 150.963 L 256.827 0 L 264.869 0 L 264.869 149.867 L 267.062 149.867 L 275.104 149.135 L 289.725 146.212 L 297.401 146.212 C 307.171 148.562 313.213 158.358 310.926 168.142 C 309.321 176.733 301.75 182.914 293.014 182.765 L 275.104 185.688 L 267.062 185.688 L 264.869 185.688 L 264.869 290.23 L 267.062 290.23 L 275.104 288.036 L 341.264 274.878 L 341.264 274.878 L 341.264 274.878 C 356.891 273.591 371.6 282.414 377.817 296.808 L 377.817 296.808 L 450.923 440.827 L 450.923 440.827 C 453.737 443.597 456.08 446.807 457.867 450.33 Z M 256.827 187.516 L 165.446 197.385 L 192.495 304.85 L 256.827 292.423 L 256.827 187.516 Z"/></svg>
